assets/svg-spotify/Muted.svg

<?xml version="1.0" encoding="UTF-8"?>
<svg fill="none" viewBox="0 0 58 55" xmlns="http://www.w3.org/2000/svg">
<path d="m0.30078 24.009c-0.32445 2.1324-0.30536 4.3101 0.047713 6.4606 0.53439 3.2938 2.6053 6.1703 5.6399 7.849 8.3116 4.6005 27.998 15.498 27.998 15.498 0.8684 0.4719 1.9281 0.4719 2.7965 0 0.8588-0.4718 1.3934-1.343 1.3934-2.2867v-48.882c0-0.9437-0.5346-1.8239-1.3934-2.2958-0.8684-0.47185-1.9281-0.47188-2.7965 0.009039 0 0-19.686 10.889-27.998 15.489-3.0346 1.6787-5.1055 4.5642-5.6399 7.8581l-0.047713 0.2995zm42.456-16.605c0-0.09981 0.0477-0.19969 0.1432-0.25414 0.0859-0.06352 0.1998-0.07263 0.2952-0.03633 8.5311 3.0126 14.6 10.825 14.6 19.972 0 9.1557-6.0691 16.959-14.6 19.981-0.0954 0.0363-0.2093 0.0182-0.2952-0.0363-0.0859-0.0635-0.1432-0.1543-0.1432-0.2541v-4.9361c0-0.2087 0.1239-0.4084 0.3243-0.4991 5.4298-2.6587 9.1513-8.0488 9.1513-14.255s-3.7215-11.588-9.1513-14.246c-0.2004-0.0999-0.3243-0.2904-0.3243-0.5082v-4.927zm-36.911 17.141v-0.0181c0.27674-1.715 1.365-3.2212 2.9396-4.0923l23.818-13.185v38.973c0 0.1452-0.0759 0.2813-0.2095 0.3539s-0.2862 0.0726-0.4198 0c-6.3745-3.5298-17.473-9.6638-23.189-12.831-1.5745-0.8711-2.6628-2.3774-2.9396-4.0924-0.27674-1.6968-0.27674-3.4299 0-5.1268v0.0181zm36.911-6.9143c0-0.127 0.0764-0.2451 0.1909-0.2995 0.124-0.0545 0.267-0.0454 0.372 0.0363 3.0441 2.2504 5.0099 5.771 5.0099 9.7182 0 3.9563-1.9658 7.468-5.0099 9.7274-0.105 0.0726-0.248 0.0816-0.372 0.0272-0.1145-0.0545-0.1909-0.1724-0.1909-0.2903v-18.919zm-42.456 6.3699 0.038767-0.2723c-0.009543 0.0908-0.029224 0.1815-0.038767 0.2723l-0.11406 0.6988 0.11406-0.6896v-0.0092z" clip-rule="evenodd" fill="#000" fill-rule="evenodd"/>
</svg>

<svg xmlns="http://www.w3.org/2000/svg" xmlns:xlink="http://www.w3.org/1999/xlink" version="1.1" width="1000" height="1000" viewBox="0 0 1000 1000" xml:space="preserve">
<desc>Created with Fabric.js 3.5.0</desc>
<defs>
</defs>
<rect x="0" y="0" width="100%" height="100%" fill="#ffffff"/>
<g transform="matrix(15.7486 0 0 15.7486 500.0005 500.0004)" id="69978">
<path style="stroke: none; stroke-width: 1; stroke-dasharray: none; stroke-linecap: butt; stroke-dashoffset: 0; stroke-linejoin: miter; stroke-miterlimit: 4; is-custom-font: none; font-file-url: none; fill: rgb(0,0,0); fill-rule: evenodd; opacity: 1;" vector-effect="non-scaling-stroke" transform=" translate(-28.9326, -27.0854)" d="M 0.30078 24.0088 C -0.0236701 26.1412 -0.0045848 28.3189 0.348493 30.4694 C 0.882882 33.7632 2.95379 36.6397 5.98835 38.3184 C 14.3 42.9189 33.9863 53.8168 33.9863 53.8168 C 34.8547 54.2887 35.9144 54.2887 36.7828 53.8168 C 37.6416 53.345 38.1762 52.4738 38.1762 51.5301 V 2.64857 C 38.1762 1.70487 37.6416 0.824625 36.7828 0.352777 C 35.9144 -0.11907 34.8547 -0.119106 33.9863 0.361816 C 33.9863 0.361816 14.3 11.2507 5.98835 15.8512 C 2.95379 17.5299 0.882882 20.4154 0.348493 23.7093 L 0.30078 24.0088 Z M 42.7566 7.40337 C 42.7566 7.30356 42.8043 7.20368 42.8998 7.14923 C 42.9857 7.08571 43.0996 7.0766 43.195 7.1129 C 51.7261 10.1255 57.7952 17.9381 57.7952 27.0847 C 57.7952 36.2404 51.7261 44.0441 43.195 47.0657 C 43.0996 47.102 42.9857 47.0839 42.8998 47.0294 C 42.8139 46.9659 42.7566 46.8751 42.7566 46.7753 C 42.7566 45.6682 42.7566 42.8282 42.7566 41.8392 C 42.7566 41.6305 42.8805 41.4308 43.0809 41.3401 C 48.5107 38.6814 52.2322 33.2913 52.2322 27.0847 C 52.2322 20.8781 48.5107 15.4972 43.0809 12.8386 C 42.8805 12.7387 42.7566 12.5482 42.7566 12.3304 C 42.7566 11.3414 42.7566 8.50133 42.7566 7.40337 Z M 5.84521 24.544 V 24.5259 C 6.12195 22.8109 7.21025 21.3047 8.78479 20.4336 L 32.6027 7.24901 C 32.6027 7.24901 32.6027 40.9135 32.6027 46.2218 C 32.6027 46.367 32.5268 46.5031 32.3932 46.5757 C 32.2596 46.6483 32.107 46.6483 31.9734 46.5757 C 25.5989 43.0459 14.5008 36.9119 8.78479 33.7451 C 7.21025 32.874 6.12195 31.3677 5.84521 29.6527 C 5.56847 27.9559 5.56847 26.2228 5.84521 24.5259 V 24.544 Z M 42.7566 17.6297 C 42.7566 17.5027 42.833 17.3846 42.9475 17.3302 C 43.0715 17.2757 43.2145 17.2848 43.3195 17.3665 C 46.3636 19.6169 48.3294 23.1375 48.3294 27.0847 C 48.3294 31.041 46.3636 34.5527 43.3195 36.8121 C 43.2145 36.8847 43.0715 36.8937 42.9475 36.8393 C 42.833 36.7848 42.7566 36.6669 42.7566 36.549 C 42.7566 33.5001 42.7566 20.6786 42.7566 17.6297 Z M 0.30078 23.9996 L 0.339547 23.7273 C 0.330004 23.8181 0.310323 23.9088 0.30078 23.9996 L 0.186716 24.6984 L 0.30078 24.0088 V 23.9996 Z" stroke-linecap="round"/>
</g>
<g transform="matrix(29.0373 0 0 29.0373 499.9996 499.9996)" id="390109">
<g style="" vector-effect="non-scaling-stroke">
		<g transform="matrix(1 0 0 1 -0.0008 -0.002)" id="Layer_2">
<path style="stroke: none; stroke-width: 1; stroke-dasharray: none; stroke-linecap: butt; stroke-dashoffset: 0; stroke-linejoin: miter; stroke-miterlimit: 4; is-custom-font: none; font-file-url: none; fill: rgb(0,0,0); fill-rule: nonzero; opacity: 1;" transform=" translate(-15.9992, -15.998)" d="M 4 29 a 1 1 0 0 1 -0.71 -0.29 a 1 1 0 0 1 0 -1.42 l 24 -24 a 1 1 0 1 1 1.42 1.42 l -24 24 A 1 1 0 0 1 4 29 Z" stroke-linecap="round"/>
</g>
		<g transform="matrix(1 0 0 1 0.0008 -0.002)" id="Layer_2">
<path style="stroke: none; stroke-width: 1; stroke-dasharray: none; stroke-linecap: butt; stroke-dashoffset: 0; stroke-linejoin: miter; stroke-miterlimit: 4; is-custom-font: none; font-file-url: none; fill: rgb(0,0,0); fill-rule: nonzero; opacity: 1;" transform=" translate(-16.0009, -15.998)" d="M 28 29 a 1 1 0 0 1 -0.71 -0.29 l -24 -24 A 1 1 0 0 1 4.71 3.29 l 24 24 a 1 1 0 0 1 0 1.42 A 1 1 0 0 1 28 29 Z" stroke-linecap="round"/>
</g>
		<g transform="matrix(1 0 0 1 0 0)" id="frame">
<rect style="stroke: none; stroke-width: 1; stroke-dasharray: none; stroke-linecap: butt; stroke-dashoffset: 0; stroke-linejoin: miter; stroke-miterlimit: 4; is-custom-font: none; font-file-url: none; fill: none; fill-rule: nonzero; opacity: 1;" x="-16" y="-16" rx="0" ry="0" width="32" height="32"/>
</g>
</g>
</g>
</svg>
